X:1
T:There Are Lonely Hearts to Cherish
T:There Are Lonely Hearts to Cherish
T:Ira David Sankey, 1881
T:George Cooper, 1870
T:Public Domain Courtesy of the Cyber Hymnal™
T:Public Domain Courtesy of the Cyber Hymnal™
C:Ira David Sankey, 1881
Z:Public Domain
Z:Courtesy of the Cyber Hymnal™
%%score 1 ( 2 3 )
L:1/8
Q:1/4=105
M:4/4
K:Ab
V:1 treble 
V:2 bass 
V:3 bass 
V:1
 [A,C]>[B,D] | [CE]3 [CE] [DF]2 [CE]2 | [CE] [CA]3- [CA]2 [EA]>[FB] | [Ec]3 [CA] [DB] [DB]3 | %4
w: 1.~There are|lone- ly hearts to|cher- ish, * While the|days are go- ing|
w: 2.~There’s no|time for i- dle|scorn- ing, * While the|days are go- ing|
w: 3.~All the|lov- ing links that|bind us, * While the|days are go- ing|
 [CA]6 [A,C]>[B,D] | [CE]3 [CE] [DF]2 [CE]2 | [CE] [CA]3- [CA]2 [EA]>[FB] | [Ec]3 [CA] [DB] [DB]3 | %8
w: by; There are|wear- y souls who|per- ish, * While the|days are go- ing|
w: by; Let your|face be like the|morn- ing, * While the|days are g- oing|
w: by; One by|one we leave be-|hind us, * While the|days are go- ing|
 [CA]6 [EA]>[EB] | [Ec]3 [DB] [Ec]2 [Ed]2 x | [Ae]6 [Ec]>[Ed] | [Ae]3 [Ec] [Ed]2 [Ec]2 | [EB]6 | %13
w: by; If a|smile we can re-|new, As our|jour- ney we pur-|sue,|
w: by; Oh, the|world is full of|sighs, Full of|sad and weep- ing|eyes;|
w: by; But the|seeds of good we|sow, Both in|shade and shine will|grow,|
 [=Ec]>[CB] | [CA]3 [CB] [FA]2 [DF]2 | [CE]6 [EA]>[FB] | [Ec]3 [CA] [DB] [DB]3 | [CA]6 || %18
w: Oh, the|good we all may|do, While the|days are go- ing|by.|
w: Help your|fall- en bro- ther|rise, While the|days are go- ing|by.|
w: And will|keep our hearts a-|glow, While the|days are go- ing|by.|
"^Refrain" [Cc]>[DB] | [Ec]6 [CA]>[DF] | [CE]6 [EA]>[Ac] | [ce]6 [Ac]>[EA] | [GB]6 [EA]>[DB] | %23
w: |||||
w: Go- ing|by Go- ing|by Go- ing|by Go- ing|by Oh, the|
w: |||||
 [Ec]2 [Ec]2 [DB]2 [CA]2 | [CE]6 [EA]>[FB] | [Ec]3 [CA] [DB] [DB]3 | [CA]4 |] %27
w: ||||
w: good we all may|do, While the|days are go- ing|by.|
w: ||||
V:2
 [A,,E,]>[A,,E,] | [A,,A,]3 [A,,A,] [A,,A,]2 [A,,A,]2 | [A,,A,] [A,,E,]3- [A,,E,]2 [C,A,]>[D,A,] | %3
 [E,A,]3 [E,A,] [E,G,] [E,G,]3 | [A,,A,]6 [A,,E,]>[A,,E,] | [A,,A,]3 [A,,A,] [A,,A,]2 [A,,A,]2 | %6
 [A,,A,] [A,,E,]3- [A,,E,]2 [C,A,]>[D,A,] | [E,A,]3 [E,A,] [E,G,] [E,G,]3 | %8
 [A,,A,]6 [C,A,]>[E,G,] | A,3 [E,G,] A,3 [A,B,]2 | [A,C]6 A,>[A,B,] | [A,C]3 A, [G,B,]2 A,2 | %12
 [E,G,]6 | [C,G,]>[=E,G,] | [F,A,]3 [F,A,] [D,A,]2 [D,A,]2 | [A,,A,]6 [C,A,]>[D,A,] | %16
 [E,A,]3 E, [E,G,] [E,G,]3 | [A,,A,]6 || z2 | z2 ([A,,A,]>[A,,A,] [A,,A,]2) z2 | %20
 z2 ([A,,A,]>[A,,A,] [A,,A,]2) z2 | z2 (A,>A, A,2) z2 | z2 ([E,E]3/2 [E,E]/ E2) [C,A,]>[B,,G,] | %23
 [A,,A,]2 [A,,A,]2 [A,,A,]2 [A,,A,]2 | [A,,A,]6 [C,A,]>[D,A,] | [E,A,]3 [E,A,] [E,G,] [E,G,]3 | %26
 [A,,A,]4 |] %27
V:3
 x2 | x8 | x8 | x8 | x8 | x8 | x8 | x8 | x8 | A,3 A,2 x4 | x6 A,3/2 x/ | x8 | x6 | x2 | x8 | x8 | %16
 x8 | x6 || x2 | x8 | x8 | x8 | x4 (E,D,) x2 | x8 | x8 | x8 | x4 |] %27

